X:6179
T:Ger the Rigger
M:2/4
L:1/16
R:Polka
K:D
|:z2|e2A2 e2A2|efed c2A2|d4defg|a2e2 f2e2|
e2A2 e2A2|efed c2A2|d4c4|BABc A2:|
|:(3efg|a2e2 fece|a2e2 fecA|d4defg|a2e2 f2e2|
a2e2 fece|a2e2 fecA|d4c4|BABc A2:|
